apps/www/public/images/career/icons/tech_allowance-light.svg

<svg width="49" height="49" viewBox="0 0 49 49" fill="none" xmlns="http://www.w3.org/2000/svg">
<rect x="0.615234" y="0.583008" width="48" height="48" rx="8" fill="#DDF3E4"/>
<path d="M11.7041 25.7879V22.8568C11.7041 19.0907 13.2398 15.6832 15.7191 13.2265M37.9071 25.7879V22.8568C37.9071 19.0475 36.336 15.6051 33.8065 13.1423" stroke="#92CEAC" stroke-width="2" stroke-miterlimit="10" stroke-linejoin="bevel"/>
<path d="M8.69971 28.8113C8.69971 27.1544 10.0429 25.8113 11.6997 25.8113H12.2086V38.3727H11.6997C10.0429 38.3727 8.69971 37.0296 8.69971 35.3727V28.8113Z" stroke="#299764" stroke-width="2" stroke-miterlimit="10" stroke-linejoin="bevel"/>
<path d="M40.6851 35.3726C40.6851 37.0294 39.3419 38.3726 37.6851 38.3726L37.1762 38.3726L37.1762 25.8111L37.6851 25.8111C39.3419 25.8111 40.6851 27.1543 40.6851 28.8111L40.6851 35.3726Z" stroke="#299764" stroke-width="2" stroke-miterlimit="10" stroke-linejoin="bevel"/>
<path d="M17.8109 13.4662C19.7395 12.0538 22.1157 11.2204 24.6921 11.2204C27.2686 11.2204 29.6448 12.0538 31.5734 13.4662C32.4185 14.0851 33.6054 13.9018 34.2243 13.0566C34.8432 12.2115 34.6599 11.0247 33.8147 10.4057C31.2579 8.53321 28.1014 7.427 24.6921 7.427C21.2829 7.427 18.1264 8.53321 15.5696 10.4057C14.7244 11.0247 14.5411 12.2115 15.16 13.0566C15.7789 13.9018 16.9658 14.0851 17.8109 13.4662Z" stroke="#299764" stroke-width="2" stroke-miterlimit="10" stroke-linejoin="bevel"/>
<path d="M12.209 26.5132C12.209 24.8563 13.5521 23.5132 15.209 23.5132H17.8768V40.6709H15.209C13.5521 40.6709 12.209 39.3278 12.209 37.6709V26.5132Z" fill="#5BB98C" stroke="#299764" stroke-width="2" stroke-miterlimit="10" stroke-linejoin="bevel"/>
<path d="M37.1758 37.6707C37.1758 39.3275 35.8326 40.6707 34.1758 40.6707L31.5079 40.6707L31.5079 23.5129L34.1758 23.5129C35.8326 23.5129 37.1758 24.856 37.1758 26.5129L37.1758 37.6707Z" fill="#5BB98C" stroke="#299764" stroke-width="2" stroke-miterlimit="10" stroke-linejoin="bevel"/>
</svg>

<svg xmlns="http://www.w3.org/2000/svg" width="49" height="49" fill="none" viewBox="0 0 49 49"><rect width="48" height="48" x=".615" y=".583" fill="#ddf3e4" rx="8"/><path stroke="#92ceac" stroke-linejoin="bevel" stroke-miterlimit="10" stroke-width="2" d="M11.704 25.788v-2.931c0-3.766 1.536-7.174 4.015-9.63m22.188 12.56v-2.93c0-3.81-1.571-7.252-4.1-9.715"/><path stroke="#299764" stroke-linejoin="bevel" stroke-miterlimit="10" stroke-width="2" d="M8.7 28.811a3 3 0 0 1 3-3h.509v12.562h-.51a3 3 0 0 1-3-3zM40.685 35.373a3 3 0 0 1-3 3h-.509V25.81h.51a3 3 0 0 1 3 3zM17.81 13.466a11.6 11.6 0 0 1 6.882-2.246 11.6 11.6 0 0 1 6.881 2.246 1.897 1.897 0 1 0 2.242-3.06 15.4 15.4 0 0 0-9.123-2.979c-3.41 0-6.566 1.106-9.122 2.979a1.897 1.897 0 1 0 2.24 3.06Z"/><path fill="#5bb98c" stroke="#299764" stroke-linejoin="bevel" stroke-miterlimit="10" stroke-width="2" d="M12.209 26.513a3 3 0 0 1 3-3h2.668v17.158h-2.668a3 3 0 0 1-3-3zM37.176 37.67a3 3 0 0 1-3 3h-2.668V23.514h2.668a3 3 0 0 1 3 3z"/></svg>
